package/svg/sofa_fill.svg

<svg width="100%" height="100%" viewBox="0 0 56 56" version="1.1" xmlns="http://www.w3.org/2000/svg"><g><path d="M9.505,19.5c0.131,-3.058 2.655,-5.5 5.745,-5.5l25.5,0c3.09,0 5.614,2.442 5.745,5.5l1.505,0c1.656,0 3,1.344 3,3l0,14c0,1.656 -1.344,3 -3,3l-0.5,0l0,1c0,0.828 -0.672,1.5 -1.5,1.5c-0.828,0 -1.5,-0.672 -1.5,-1.5l0,-1l-33,0l0,1c0,0.828 -0.672,1.5 -1.5,1.5c-0.828,0 -1.5,-0.672 -1.5,-1.5l0,-1l-0.5,0c-1.656,0 -3,-1.344 -3,-3l0,-14c0,-1.656 1.344,-3 3,-3l1.505,0Zm1.495,12.03l0,-7.56c0,-0.811 -0.656,-1.468 -1.467,-1.47l-0.06,0c-0.39,-0.001 -0.765,0.154 -1.041,0.43c-0.277,0.275 -0.432,0.65 -0.432,1.04l0,11.06c0,0.812 0.658,1.47 1.47,1.47l37.06,0c0.39,0 0.764,-0.155 1.039,-0.431c0.276,-0.275 0.431,-0.649 0.431,-1.039l0,-11.06c0,-0.812 -0.658,-1.47 -1.47,-1.47l-0.06,0c-0.812,0 -1.47,0.658 -1.47,1.47l0,7.53c-0.011,0.435 -0.209,0.844 -0.545,1.122l-0.043,0.035c-0.258,0.212 -0.578,0.333 -0.911,0.342l-0.001,0.001l-31.03,0c-0.39,0 -0.764,-0.155 -1.039,-0.431c-0.276,-0.275 -0.431,-0.649 -0.431,-1.039Z"/></g></svg>

<svg width="56" height="56" viewBox="0 0 56 56" fill="none" xmlns="http://www.w3.org/2000/svg">
<path d="M9.505 19.5C9.636 16.442 12.16 14 15.25 14H40.75C43.84 14 46.364 16.442 46.495 19.5H48C49.656 19.5 51 20.844 51 22.5V36.5C51 38.156 49.656 39.5 48 39.5H47.5V40.5C47.5 41.328 46.828 42 46 42C45.172 42 44.5 41.328 44.5 40.5V39.5H11.5V40.5C11.5 41.328 10.828 42 10 42C9.172 42 8.5 41.328 8.5 40.5V39.5H8C6.344 39.5 5 38.156 5 36.5V22.5C5 20.844 6.344 19.5 8 19.5H9.505V19.5ZM11 31.53V23.97C11 23.159 10.344 22.502 9.533 22.5H9.473C9.083 22.499 8.708 22.654 8.432 22.93C8.155 23.205 8 23.58 8 23.97V35.03C8 35.842 8.658 36.5 9.47 36.5H46.53C46.92 36.5 47.294 36.345 47.569 36.069C47.845 35.794 48 35.42 48 35.03V23.97C48 23.158 47.342 22.5 46.53 22.5H46.47C45.658 22.5 45 23.158 45 23.97V31.5C44.989 31.935 44.791 32.344 44.455 32.622L44.412 32.657C44.154 32.869 43.834 32.99 43.501 32.999L43.5 33H12.47C12.08 33 11.706 32.845 11.431 32.569C11.155 32.294 11 31.92 11 31.53V31.53Z" fill="black"/>
</svg>
